svg/u1f6cb.svg

<svg viewBox="0 0 128 128" xmlns="http://www.w3.org/2000/svg">
  <g>
    <path d="M110.93,8.32c0-2.36-5.89-4.28-13.16-4.28c-7.27,0-13.17,1.91-13.17,4.28 c0,2.01-3.42,18.4-4.33,23.28c-0.33,1.77,0.21,2.49,1.09,3c2.68,1.54,9.02,2.63,16.4,2.63c7.74,0,14.33-1.19,16.76-2.85 c0.65-0.45,0.95-1.56,0.6-3.55C114.09,24.96,110.93,9.09,110.93,8.32z" fill="#FFD600"/>
    <ellipse cx="97.77" cy="31.79" rx="14.91" ry="3.59" fill="#FFFF8D"/>
    <linearGradient id="SVGID_1_" gradientUnits="userSpaceOnUse" x1="97.768" x2="97.768" y1="14.6549" y2="73.9505">
      <stop offset="0.0409" stop-color="#FFFF8D"/>
      <stop offset="0.5671" stop-color="#C87D5E"/>
      <stop offset="0.6765" stop-color="#BA7151"/>
      <stop offset="0.7995" stop-color="#A65F3E"/>
    </linearGradient>
    <rect height="50.42" fill="url(#SVGID_1_)" width="3.98" x="95.78" y="28.2"/>
    <path d="M112.27,117l-0.77,5.95c-0.02,0.51-0.57,1.01-2.2,1.01c-1.45,0-1.8-0.62-1.84-1.03l-0.61-5.92 H112.27z" fill="#C87D5E"/>
    <path d="M107,118.53c0.17,0.8,1.26,1.56,2.61,1.56s2.44-0.69,2.44-1.55l0.19-1.55 c-0.15,0-5.25,0.01-5.4,0.03L107,118.53z" fill="#A65F3E"/>
    <path d="M15.73,117l0.77,5.95c0.02,0.51,0.57,1.01,2.2,1.01c1.45,0,1.8-0.62,1.84-1.03l0.61-5.92H15.73z" fill="#C87D5E"/>
    <path d="M21,118.53c-0.17,0.8-1.26,1.56-2.61,1.56c-1.35,0-2.44-0.69-2.44-1.55L15.76,117 c0.15,0,5.25,0.01,5.4,0.03L21,118.53z" fill="#A65F3E"/>
    <polygon points="115.07,82.41 114.67,98.21 105.4,91.32 107.23,79.59 " fill="#0B52A0"/>
    <path d="M113.04,82.31c1.04,0.54,1.9,0.48,2.52-0.52c1.54-2.44,3.6-2.32,5.07-2.21 c1.4,0.1,2.33,0.74,3.2,2.51c-0.24-1.02-0.48-2.74-3.59-3.38c-3.54-0.74-12.78-0.82-12.78-0.82c-0.18-0.09-0.23,2.22-0.23,2.22 L113.04,82.31z" fill="#48CDED"/>
    <polygon points="13.05,82.41 13.45,98.21 22.72,91.32 20.89,79.59 " fill="#0B52A0"/>
    <path d="M15.08,82.31c-1.04,0.54-1.9,0.48-2.52-0.52c-1.54-2.44-3.6-2.32-5.07-2.21 c-1.4,0.1-2.33,0.74-3.2,2.51c0.24-1.02,0.48-2.74,3.59-3.38c3.54-0.74,12.78-0.82,12.78-0.82c0.18-0.09,0.23,2.22,0.23,2.22 L15.08,82.31z" fill="#48CDED"/>
    <path d="M107.28,65.77c-0.04-0.28-0.09-0.56-0.14-0.82c-0.37-1.87-1.73-3.29-3.42-3.55 c-3.43-0.53-10.4-1.43-18.7-1.43c-7.37,0-13.69,0.71-17.41,1.24c-2.04,0.29-3.56,2.25-3.56,4.56c0-2.32-1.52-4.27-3.56-4.56 c-3.72-0.53-10.05-1.24-17.41-1.24c-8.3,0-15.28,0.9-18.7,1.43c-1.69,0.26-3.03,1.68-3.42,3.55c-1.99,9.52,1.15,26.56,1.15,26.56 h41.95h41.95C105.99,91.51,108.78,75.21,107.28,65.77z" fill="#3DAAE0"/>
    <path d="M65.09,91.51c-0.55,1.3-1.8,1.31-2.11,0c-0.31-1.31,0-18.09,0-20.65c0-2.56,1.06-5.33,1.06-5.33 s1.06,3.29,1.06,5.33S65.64,90.21,65.09,91.51z" fill="#188AD6"/>
    <path d="M114.42,97.58c0.16-0.01-5.43-6.07-8.98-6.68c0,0-6.46-1.21-17.75-1.21 c-11.29,0-23.66,1.82-23.66,1.82L64,91.97l-0.03-0.47c0,0-12.38-1.82-23.66-1.82c-11.29,0-17.75,1.21-17.75,1.21 c-3.55,0.61-9.14,6.67-8.98,6.68l45.18-0.12l5.24,3.56l4.22-3.56L114.42,97.58z" fill="#48CDED"/>
    <path d="M120.21,79.37c-3.29-0.28-5.37,1.37-5.68,4.86c-0.32,3.55-0.26,9.23-0.16,13.32 c-0.41-0.5-0.97-0.84-1.61-0.93c-3.89-0.53-12.36-1.47-23.21-1.47s-19.37,0.61-23.21,1.47c-0.88,0.2-1.63,1.18-2.03,2.26 c-0.1,0.28-0.51,0.29-0.61,0c-0.4-1.08-1.15-2.06-2.03-2.27c-3.77-0.86-12.36-1.47-23.21-1.47c-10.85,0-19.32,0.94-23.21,1.47 c-0.64,0.09-1.2,0.43-1.61,0.93c0.1-4.09,0.15-9.76-0.16-13.32c-0.31-3.49-2.01-5.09-5.68-4.86c-2.13,0.13-3.91,1.76-3.79,4.16 l0.86,17.64c0,11.53,6.71,16.86,14.95,16.86h88.36c8.24,0,14.95-5.33,14.95-16.86l0.86-17.64 C124.12,81.13,122.33,79.55,120.21,79.37z" fill="#188AD6"/>
    <path d="M112.67,108.75c-3.82,0.95-11.68,0.95-23.13,0.95c-11.44,0-19.39-0.6-23.13-0.95 c-0.84-0.08-1.57-0.91-2-1.9c-0.17-0.38-0.68-0.38-0.85,0c-0.43,0.99-1.15,1.82-2,1.9c-3.73,0.36-11.68,0.95-23.13,0.95 c-11.44,0-19.64,0-23.13-0.95c-0.73-0.2-1.38-0.62-1.82-1.21c0.62,2.66,2.9,4.68,5.72,4.84c7.47,0.44,82.08,0.44,89.56,0 c2.81-0.16,5.08-2.18,5.71-4.82C114.05,108.15,113.4,108.57,112.67,108.75z" fill="#0B52A0"/>
  </g>
</svg>

<svg viewBox="0 0 128 128" xmlns="http://www.w3.org/2000/svg">
  <defs>
    <linearGradient id="SVGID_1_" gradientUnits="userSpaceOnUse" x1="97.768" x2="97.768" y1="14.6549" y2="73.9505">
      <stop offset="0.0409" stop-color="#FFFF8D"/>
      <stop offset="0.5671" stop-color="#C87D5E"/>
      <stop offset="0.6765" stop-color="#BA7151"/>
      <stop offset="0.7995" stop-color="#A65F3E"/>
    </linearGradient>
  </defs>
  <path d="M110.93,8.32 C110.93,5.96 105.04,4.04 97.77,4.04 C90.5,4.04 84.6,5.95 84.6,8.32 C84.6,10.33 81.18,26.72 80.27,31.6 C79.94,33.37 80.48,34.09 81.36,34.6 C84.04,36.14 90.38,37.23 97.76,37.23 C105.5,37.23 112.09,36.04 114.52,34.38 C115.17,33.93 115.47,32.82 115.12,30.83 C114.09,24.96 110.93,9.09 110.93,8.32 Z" fill="#FFD600"/>
  <path d="M112.68,31.79 A14.91 3.59 0 1 1 82.86,31.79 A14.91 3.59 0 1 1 112.68,31.79 Z" fill="#FFFF8D"/>
  <path d="M95.78,28.2 L99.76,28.2 L99.76,78.62 L95.78,78.62 L95.78,28.2 Z" fill="url(#SVGID_1_)"/>
  <path d="M112.27,117 L111.5,122.95 C111.48,123.46 110.93,123.96 109.3,123.96 C107.85,123.96 107.5,123.34 107.46,122.93 L106.85,117.01 L112.27,117.01 Z" fill="#C87D5E"/>
  <path d="M107,118.53 C107.17,119.33 108.26,120.09 109.61,120.09 C110.96,120.09 112.05,119.4 112.05,118.54 L112.24,116.99 C112.09,116.99 106.99,117 106.84,117.02 L107,118.53 Z" fill="#A65F3E"/>
  <path d="M15.73,117 L16.5,122.95 C16.52,123.46 17.07,123.96 18.7,123.96 C20.15,123.96 20.5,123.34 20.54,122.93 L21.15,117.01 L15.73,117.01 Z" fill="#C87D5E"/>
  <path d="M21,118.53 C20.83,119.33 19.74,120.09 18.39,120.09 C17.04,120.09 15.95,119.4 15.95,118.54 L15.76,117 C15.91,117 21.01,117.01 21.16,117.03 L21,118.53 Z" fill="#A65F3E"/>
  <path d="M115.07,82.41 L114.67,98.21 L105.4,91.32 L107.23,79.59 Z" fill="#0B52A0"/>
  <path d="M113.04,82.31 C114.08,82.85 114.94,82.79 115.56,81.79 C117.1,79.35 119.16,79.47 120.63,79.58 C122.03,79.68 122.96,80.32 123.83,82.09 C123.59,81.07 123.35,79.35 120.24,78.71 C116.7,77.97 107.46,77.89 107.46,77.89 C107.28,77.8 107.23,80.11 107.23,80.11 L113.04,82.31 Z" fill="#48CDED"/>
  <path d="M13.05,82.41 L13.45,98.21 L22.72,91.32 L20.89,79.59 Z" fill="#0B52A0"/>
  <path d="M15.08,82.31 C14.04,82.85 13.18,82.79 12.56,81.79 C11.02,79.35 8.96,79.47 7.49,79.58 C6.09,79.68 5.16,80.32 4.29,82.09 C4.53,81.07 4.77,79.35 7.88,78.71 C11.42,77.97 20.66,77.89 20.66,77.89 C20.84,77.8 20.89,80.11 20.89,80.11 L15.08,82.31 Z" fill="#48CDED"/>
  <path d="M107.28,65.77 C107.24,65.49 107.19,65.21 107.14,64.95 C106.77,63.08 105.41,61.66 103.72,61.4 C100.29,60.87 93.32,59.97 85.02,59.97 C77.65,59.97 71.33,60.68 67.61,61.21 C65.57,61.5 64.05,63.46 64.05,65.77 C64.05,63.45 62.53,61.5 60.49,61.21 C56.77,60.68 50.44,59.97 43.08,59.97 C34.78,59.97 27.8,60.87 24.38,61.4 C22.69,61.66 21.35,63.08 20.96,64.95 C18.97,74.47 22.11,91.51 22.11,91.51 L64.06,91.51 L106.01,91.51 C105.99,91.51 108.78,75.21 107.28,65.77 Z" fill="#3DAAE0"/>
  <path d="M65.09,91.51 C64.54,92.81 63.29,92.82 62.98,91.51 C62.67,90.2 62.98,73.42 62.98,70.86 C62.98,68.3 64.04,65.53 64.04,65.53 C64.04,65.53 65.1,68.82 65.1,70.86 C65.1,72.9 65.64,90.21 65.09,91.51 Z" fill="#188AD6"/>
  <path d="M114.42,97.58 C114.58,97.57 108.99,91.51 105.44,90.9 C105.44,90.9 98.98,89.69 87.69,89.69 C76.4,89.69 64.03,91.51 64.03,91.51 L64,91.97 L63.97,91.5 C63.97,91.5 51.59,89.68 40.31,89.68 C29.02,89.68 22.56,90.89 22.56,90.89 C19.01,91.5 13.42,97.56 13.58,97.57 L58.76,97.45 L64,101.01 L68.22,97.45 L114.42,97.58 Z" fill="#48CDED"/>
  <path d="M120.21,79.37 C116.92,79.09 114.84,80.74 114.53,84.23 C114.21,87.78 114.27,93.46 114.37,97.55 C113.96,97.05 113.4,96.71 112.76,96.62 C108.87,96.09 100.4,95.15 89.55,95.15 C78.7,95.15 70.18,95.76 66.34,96.62 C65.46,96.82 64.71,97.8 64.31,98.88 C64.21,99.16 63.8,99.17 63.7,98.88 C63.3,97.8 62.55,96.82 61.67,96.61 C57.9,95.75 49.31,95.14 38.46,95.14 C27.61,95.14 19.14,96.08 15.25,96.61 C14.61,96.7 14.05,97.04 13.64,97.54 C13.74,93.45 13.79,87.78 13.48,84.22 C13.17,80.73 11.47,79.13 7.8,79.36 C5.67,79.49 3.89,81.12 4.01,83.52 L4.87,101.16 C4.87,112.69 11.58,118.02 19.82,118.02 L108.18,118.02 C116.42,118.02 123.13,112.69 123.13,101.16 L123.99,83.52 C124.12,81.13 122.33,79.55 120.21,79.37 Z" fill="#188AD6"/>
  <path d="M112.67,108.75 C108.85,109.7 100.99,109.7 89.54,109.7 C78.1,109.7 70.15,109.1 66.41,108.75 C65.57,108.67 64.84,107.84 64.41,106.85 C64.24,106.47 63.73,106.47 63.56,106.85 C63.13,107.84 62.41,108.67 61.56,108.75 C57.83,109.11 49.88,109.7 38.43,109.7 C26.99,109.7 18.79,109.7 15.3,108.75 C14.57,108.55 13.92,108.13 13.48,107.54 C14.1,110.2 16.38,112.22 19.2,112.38 C26.67,112.82 101.28,112.82 108.76,112.38 C111.57,112.22 113.84,110.2 114.47,107.56 C114.05,108.15 113.4,108.57 112.67,108.75 Z" fill="#0B52A0"/>
</svg>
